public/Img/footer__instagram.svg

<svg width="20" height="20" viewBox="0 0 20 20" fill="none" xmlns="http://www.w3.org/2000/svg">
<path d="M10 1.80078C12.6719 1.80078 12.9883 1.8125 14.0391 1.85937C15.0156 1.90234 15.543 2.06641 15.8945 2.20313C16.3594 2.38281 16.6953 2.60156 17.043 2.94922C17.3945 3.30078 17.6094 3.63281 17.7891 4.09766C17.9258 4.44922 18.0898 4.98047 18.1328 5.95312C18.1797 7.00781 18.1914 7.32422 18.1914 9.99219C18.1914 12.6641 18.1797 12.9805 18.1328 14.0313C18.0898 15.0078 17.9258 15.5352 17.7891 15.8867C17.6094 16.3516 17.3906 16.6875 17.043 17.0352C16.6914 17.3867 16.3594 17.6016 15.8945 17.7813C15.543 17.918 15.0117 18.082 14.0391 18.125C12.9844 18.1719 12.668 18.1836 10 18.1836C7.32813 18.1836 7.01172 18.1719 5.96094 18.125C4.98438 18.082 4.45703 17.918 4.10547 17.7813C3.64063 17.6016 3.30469 17.3828 2.95703 17.0352C2.60547 16.6836 2.39063 16.3516 2.21094 15.8867C2.07422 15.5352 1.91016 15.0039 1.86719 14.0313C1.82031 12.9766 1.80859 12.6602 1.80859 9.99219C1.80859 7.32031 1.82031 7.00391 1.86719 5.95312C1.91016 4.97656 2.07422 4.44922 2.21094 4.09766C2.39063 3.63281 2.60938 3.29688 2.95703 2.94922C3.30859 2.59766 3.64063 2.38281 4.10547 2.20313C4.45703 2.06641 4.98828 1.90234 5.96094 1.85937C7.01172 1.8125 7.32813 1.80078 10 1.80078ZM10 0C7.28516 0 6.94531 0.0117187 5.87891 0.0585938C4.81641 0.105469 4.08594 0.277344 3.45313 0.523438C2.79297 0.78125 2.23438 1.12109 1.67969 1.67969C1.12109 2.23438 0.78125 2.79297 0.523438 3.44922C0.277344 4.08594 0.105469 4.8125 0.0585938 5.875C0.0117188 6.94531 0 7.28516 0 10C0 12.7148 0.0117188 13.0547 0.0585938 14.1211C0.105469 15.1836 0.277344 15.9141 0.523438 16.5469C0.78125 17.207 1.12109 17.7656 1.67969 18.3203C2.23438 18.875 2.79297 19.2188 3.44922 19.4727C4.08594 19.7188 4.8125 19.8906 5.875 19.9375C6.94141 19.9844 7.28125 19.9961 9.99609 19.9961C12.7109 19.9961 13.0508 19.9844 14.1172 19.9375C15.1797 19.8906 15.9102 19.7188 16.543 19.4727C17.1992 19.2188 17.7578 18.875 18.3125 18.3203C18.8672 17.7656 19.2109 17.207 19.4648 16.5508C19.7109 15.9141 19.8828 15.1875 19.9297 14.125C19.9766 13.0586 19.9883 12.7188 19.9883 10.0039C19.9883 7.28906 19.9766 6.94922 19.9297 5.88281C19.8828 4.82031 19.7109 4.08984 19.4648 3.45703C19.2188 2.79297 18.8789 2.23438 18.3203 1.67969C17.7656 1.125 17.207 0.78125 16.5508 0.527344C15.9141 0.28125 15.1875 0.109375 14.125 0.0625C13.0547 0.0117188 12.7148 0 10 0Z" fill="white"/>
<path d="M10 4.86328C7.16406 4.86328 4.86328 7.16406 4.86328 10C4.86328 12.8359 7.16406 15.1367 10 15.1367C12.8359 15.1367 15.1367 12.8359 15.1367 10C15.1367 7.16406 12.8359 4.86328 10 4.86328ZM10 13.332C8.16016 13.332 6.66797 11.8398 6.66797 10C6.66797 8.16016 8.16016 6.66797 10 6.66797C11.8398 6.66797 13.332 8.16016 13.332 10C13.332 11.8398 11.8398 13.332 10 13.332Z" fill="white"/>
<path d="M16.5391 4.66016C16.5391 5.32422 16 5.85938 15.3398 5.85938C14.6758 5.85938 14.1406 5.32031 14.1406 4.66016C14.1406 3.99609 14.6797 3.46094 15.3398 3.46094C16 3.46094 16.5391 4 16.5391 4.66016Z" fill="white"/>
</svg>

<svg width="20" height="20" fill="none" xmlns="http://www.w3.org/2000/svg"><path d="M10 1.8c2.672 0 2.988.012 4.04.06.976.042 1.503.206 1.855.343.464.18.8.399 1.148.746.352.352.566.684.746 1.149.137.351.3.882.344 1.855.047 1.055.058 1.371.058 4.04 0 2.671-.011 2.987-.058 4.038-.043.977-.207 1.504-.344 1.856-.18.465-.398.8-.746 1.148a3.077 3.077 0 0 1-1.148.746c-.352.137-.883.301-1.856.344-1.055.047-1.371.059-4.039.059-2.672 0-2.988-.012-4.04-.059-.976-.043-1.503-.207-1.855-.344-.464-.18-.8-.398-1.148-.746a3.076 3.076 0 0 1-.746-1.148c-.137-.352-.3-.883-.344-1.856-.047-1.054-.058-1.37-.058-4.039 0-2.672.011-2.988.058-4.039.043-.976.207-1.504.344-1.855.18-.465.398-.801.746-1.149a3.076 3.076 0 0 1 1.148-.746c.352-.137.883-.3 1.856-.344 1.05-.046 1.367-.058 4.039-.058ZM10 0C7.285 0 6.945.012 5.879.059 4.816.105 4.086.277 3.453.523A4.88 4.88 0 0 0 1.68 1.68 4.9 4.9 0 0 0 .523 3.45C.277 4.085.105 4.811.06 5.874.012 6.945 0 7.285 0 10s.012 3.055.059 4.121c.046 1.063.218 1.793.464 2.426.258.66.598 1.219 1.157 1.773a4.888 4.888 0 0 0 1.77 1.153c.636.246 1.362.418 2.425.465 1.066.046 1.406.058 4.121.058 2.715 0 3.055-.012 4.121-.058 1.063-.047 1.793-.22 2.426-.465a4.888 4.888 0 0 0 1.77-1.153 4.888 4.888 0 0 0 1.152-1.77c.246-.636.418-1.363.465-2.425.047-1.066.058-1.406.058-4.121 0-2.715-.011-3.055-.058-4.121-.047-1.063-.22-1.793-.465-2.426A4.683 4.683 0 0 0 18.32 1.68 4.889 4.889 0 0 0 16.55.527C15.915.281 15.188.11 14.126.062 13.055.012 12.715 0 10 0Z" fill="#fff"/><path d="M10 4.863A5.138 5.138 0 0 0 4.863 10a5.138 5.138 0 0 0 10.273 0c0-2.836-2.3-5.137-5.136-5.137Zm0 8.469a3.333 3.333 0 1 1 .001-6.665A3.333 3.333 0 0 1 10 13.332ZM16.54 4.66a1.2 1.2 0 1 1-2.4 0 1.2 1.2 0 0 1 2.4 0Z" fill="#fff"/></svg>
